!!! OTL: Berkowitz98
!!! Chapter: 1
!!! Section: I
!!! Page: 24
!!! Mode: 
!!! Encoder: DJB
**kern
*staff1
*I"Piano
=1-
*clefF4
*k[f#c#g#]
*A:
*M2/4
8C#/L
8AA/J
8E/L
8C#/J
=2
8A\L
16G#\L
16F#\JJ
4E\
=3
8A\L
16G#\L
16F#\JJ
16E/LL
16D/
16C#/
16BB/JJ
=4
8C#/L
8AA/J
4BB/
=5
8E\L
8C#\J
8AA/L
8E/J
=6
8A\L
16G#\L
16F#\JJ
4E\
=7
8A\L
16G#\L
16F#\JJ
16E\LL
16F#\
16E\
16D\JJ
=8
8C#/L
8BB/J
4AA/
==
*-
